X:318
T: ES WOHNT EIN MARKGRAF AN DEM RHEIN
N: E0182A
O: Europa, Mitteleuropa, Deutschland, Sachsen; Schlesien; Brandenburg
R: erzaehlendes Volks - Lied, Sage, Familien - Geschichte
M: 2/4
L: 1/8
K: G
D | G2D2 | G2d2 | BBB
G | AAAF | GBG
D | GGD2 | Gedc | B2A2 | G2z

